X:1
T:Title
%%score ( 1 2 ) { ( 3 5 6 ) | ( 4 7 ) }
L:1/8
Q:1/4=130
M:6/4
K:Ab
V:1 treble nm="Grand Piano, Soprano"
V:2 treble 
V:3 bass nm="Choir Pad, Whenver I Think of Him"
V:5 bass 
V:6 bass 
V:4 bass 
V:7 bass 
V:1
 E2 [Ec]2 [=D_c]2 [E=c]2 [Fd]4 | [Ec]2 [DB]2 [DA]2- [DA]4- [DA]3/2 z/ | %2
w: By~Bentley~DeForest~Ackley * * * *||
 [CA][EG] [DF]2 [D=E]2 [DF]2 [Fd]4 | [DF]2 [CE]4- [CE]6- | %4
w: ||
 [CE]2 [CE][CE] [C=E]2- [CE]2 [EG]2 [GB]2 | [Ac]2 [GB]2 [GB]2 [FA]6- | %6
w: ||
 [FA]2 [EA]2 [=DA]2 [DG]2 [DA]2 [DB]2- | [DB]2 [=DA]2 [EG]2- [EG]4 [_DF]2- | %8
w: ||
 [DF]2 E2 c2 G2 [CA]2 [DB]2 | [FA]2 [DF]2 E2- E2- [CE-]2 [CE]2- | %10
w: ||
 [CE]2 [CE]2 [CE]2 [DF]2 [B,G]2 [CA]2 | [Fd]2 [Ec]2 [DB]2- [DB]6- | %12
w: ||
 [DB]2 E2 [Ec]2- [Ec]2 [Ec]2 [CA]2 | [DB]2 [Ec]2 [Fd]2- [Fd]2 [E=A]2 [DB]2- | %14
w: ||
 [DB]2 [=D_c]2 [E=c]2 [Ec]2 [Fd]2 [Ec]2- | [Ec]2 [DB]2 [CA]2- [CA]6- | [CA]6 z6 |] %17
w: |||
V:2
 x12 | x12 | x12 | x12 | x12 | x12 | x12 | x12 | x12 | z4 C2- C2 z2 z2 | x12 | x12 | x12 | x12 | %14
 x12 | x12 | x12 |] %17
V:3
 E,2 C2 _C2 =C2 D4 | C2 B,2 A,2- A,4- A,3/2 z/ | A,G, F,2 =E,2 F,2 D4 | F,2 E,4- E,6- | %4
 E,2 E,E, =E,2- E,2 G,2 B,2 | C2 B,2 B,2 A,6- | A,2 A,2 A,2 G,2 A,2 B,2- | B,2 A,2 G,2- G,4 F,2- | %8
 F,2 E,2 C2 G,2 A,2 B,2 | A,2 F,2 E,2- E,6- | E,2 E,2 E,2 F,2 G,2 A,2 | D2 .C4 z2 .A,4 | %12
 z2 E,2[K:treble] C2- C2 C2 A,2 | B,2 C2 D2- D2[K:bass] =A,2 B,2- | %14
 B,2 _C2 =C2[K:treble] C2 D2 C2- | C2 B,2[K:bass] A,2- A,6- | A,6 z6 |] %17
V:4
 z2 A,,4- A,,6- | A,,2 E,2 F,2- F,4- F,3/2 z/ | .C,2 D,4- D,6- | D,2 A,,4- A,,6- | A,,4 C,2- C,6- | %5
 C,4 F,2- F,6- | F,4 B,,2- B,,6- | B,,4 E,2- E,6- | %8
 E,2 z2 [A,,E,]2- [A,,E,]3- [A,,E,]/ z/ [A,,F,]2- | [A,,F,]4 A,,2- A,,4- A,,3/2 z/ | %10
 z4 A,,2- A,,6- | A,,2 A,2 [E,G,]2- [E,G,]2 =D,2 E,2- | %12
 E,2 z2 [A,,A,]2- [A,,A,]2 [A,,A,]2 [A,,E,]2- | [A,,E,]2 [A,,A,]2 [D,A,]2- [D,A,]2 F,2 [B,,F,]2- | %14
 [B,,F,]2 [=E,=A,]2 [_E,_A,]2 A,4 G,2- | G,2 z2 [A,,E,]2- [A,,E,]6- | [A,,E,]6 z6 |] %17
V:5
 x12 | x12 | x12 | x12 | x12 | x12 | x12 | x12 | x12 | x12 | x12 | z4 B,2- B,6- | %12
 B,6[K:treble] z6 | x8[K:bass] x4 | x6[K:treble] x6 | x4[K:bass] x8 | x12 |] %17
V:6
 x12 | x12 | x12 | x12 | x12 | x12 | x12 | x12 | x12 | x12 | x12 | z6 z4 G,2- | %12
 G,4[K:treble] z2 z6 | x8[K:bass] x4 | x6[K:treble] x6 | x4[K:bass] x8 | x12 |] %17
V:7
 x12 | x12 | x12 | x12 | x12 | x12 | x12 | x12 | x12 | x12 | x12 | x12 | x12 | x12 | z6 E,6- | %15
 E,4 z2 z6 | x12 |] %17

